X: 1
T: Guitar Chords
M: 6/8
K: G
"Am"ABc "Dm"def | "Am7"ACE "Bb"DFF "G"GBB | "Em"g2b2"D7"c2d2 || "Eb"^e4|
| "Gb"ede edc | def fed |1 "A"efg "D"gfe | e6 :|2 "G"gag "F"f"Em"e"D7"d | "C"c6 |]
